X: 79
M:2/4
L:1/16
K:A
uE2|AGAc ecAc|dcdf ecAc|.d2(fd) .c2(ec)|BABc BdcB|
|:((3uefg)|aece fece|aece fece|agaf fedc|BABc BdcB|


